!!!OTL: Chenjunzhang, qingnin hebei nuomijiu
!!!ARE: Asia, China,ÿJiangsu Rudong
!! III, 458
!!!SCT: C1809
!!!YEM: Copyright 1995, estate of Helmut Schaffrath.
**kern
*ICvox
*Ivox
*M2/4
*k[b-e-]
*B-:
{16g
16f
16g
16b-
8.cc
16dd
=1
16g
16f
16g
16b-
4cc}
=2
{16ff
16ff
16gg
16gg
16ff
16dd
16dd
16b-
=3
8cc
16ff
16dd
4cc}
=4
{16dd
16ff
16cc
16dd
8ff
8ff
=5
16ff
16gg
16dd
16cc
8b-
8b-}
=6
{16ff
16ff
16g
16f
16b-
16r
16cc
16g
=7
2f}
=8
{16ff
16ff
16g
16f
16b-
16r
16cc
16gg
=9
[2ff
=10
2ff]}
==
!!!AGN: Xiaodiao, Wuge, Huagu diao
!!!AMT: simple duple
!!!AIN: vox
!!!EED: Helmut Schaffrath
!!!EEV: 1.0
*-
!!!ONB: Tied note syntax fixed by Craig Sapp, 2004/05/03/
